static/images/mobile/copyright/wikipedia-wordmark-pap.svg

<?xml version="1.0" encoding="UTF-8"?>
<svg width="120px" height="18px" viewBox="0 0 120 18" version="1.1" xmlns="http://www.w3.org/2000/svg" xmlns:xlink="http://www.w3.org/1999/xlink">
    <title>pap-wordmark</title>
    <g id="Page-1" stroke="none" stroke-width="1" fill="none" fill-rule="evenodd">
        <path d="M18.3390042,0.000800270892 C18.4062654,0.000889033333 18.4725673,0.000982947165 18.537704,0.00108082361 L18.9128908,0.0017061233 C18.9725416,0.00181509504 19.0306147,0.00192565183 19.0869041,0.00203660488 L19.4015861,0.00269756806 C19.4499159,0.00280535102 19.4960496,0.00291115268 19.5397811,0.00301378425 L19.8629402,0.00381977891 C19.8904033,0.00389269092 19.9148459,0.00395886649 19.9360617,0.00401711684 L20.0343156,0.00429529199 L20.0923021,0.0585000093 L20.0923021,0.559368405 C20.0923021,0.697191253 20.0145666,0.766102676 19.8611967,0.766102676 C19.1077932,0.80097858 18.9531626,0.875772686 18.6779371,1.27285375 C18.5275085,1.48967262 18.2304331,1.95524493 17.9224326,2.4771229 L15.2794274,7.42025697 C15.2794274,7.42025697 15.2536065,7.47419415 15.205659,7.5741558 L18.4346462,14.1840813 L18.6304555,14.2374456 L23.7189759,2.161559 C23.8954563,1.67497712 23.8685641,1.32957962 23.6408202,1.12662708 C23.4126562,0.928716828 23.252143,0.81148337 22.6626142,0.787532448 L22.1852765,0.763161335 C22.1268699,0.763161335 22.0709844,0.741731563 22.01762,0.702233552 C21.9650961,0.664836499 21.9382038,0.615253889 21.9382038,0.556006872 L21.9382038,0.0530375184 L22.010897,0.00135395073 L27.7595383,0.00135395073 L27.817945,0.0530375184 L27.817945,0.556006872 C27.817945,0.692148953 27.7397893,0.760640185 27.5864194,0.760640185 C26.833436,0.793835322 26.2750014,0.957710049 25.9136366,1.24932302 C25.5514315,1.54345715 25.2686425,1.94810167 25.0652698,2.47418156 C25.0652698,2.47418156 23.6210556,5.77994825 22.0627298,9.32880933 L21.7947186,9.93899539 C20.6306437,12.5885014 19.4455405,15.275579 18.7846658,16.7447289 C18.1716063,17.9120212 17.5690515,17.8048724 17.0387697,16.7115338 C16.3753676,15.3451346 14.9976611,12.331408 13.9853156,10.1028368 C13.7055076,10.6812519 13.3979005,11.3136606 13.0834034,11.9566112 L12.8373108,12.4589661 C12.0146899,14.1355912 11.1806264,15.8082899 10.6854726,16.7266607 C9.97072665,17.9691673 9.3824584,17.8069733 8.91394476,16.7590154 C7.28738305,12.9214055 3.94812034,6.18321288 2.37576335,2.40737109 C2.08499076,1.71153379 1.86565074,1.2657105 1.65891647,1.08880983 C1.45092162,0.914010122 1.01854446,0.809382412 0.361364782,0.773666125 C0.1201748,0.747194054 0,0.68878742 0,0.593824117 L0,0.0681644163 L0.0584066334,0.0164808486 C0.0898839282,0.0163078285 0.124915768,0.0161449861 0.163265832,0.0159918723 L0.431294345,0.0151863411 C0.481972025,0.0150703459 0.535495289,0.0149631812 0.591627816,0.0148643981 L1.37533828,0.0140525807 C1.44856378,0.0140136662 1.52345327,0.0139813372 1.59977042,0.0139551447 L2.82206226,0.01396637 C2.90674801,0.0139903174 2.99167983,0.0140181563 3.07662139,0.0140494376 L4.55557604,0.0148872978 C4.63212694,0.0149437239 4.70726965,0.0150008984 4.78076786,0.0150583721 L5.73036321,0.015886803 C5.78150837,0.0159360449 5.82982744,0.0159833411 5.87508407,0.0160282425 L6.30791641,0.0164808486 L6.36632304,0.0681644163 L6.36632304,0.568612621 C6.36632304,0.70685566 6.27808281,0.773666125 6.10580425,0.773666125 L5.45366687,0.80097858 C4.89439184,0.824089118 4.61454423,0.991745569 4.61454423,1.30142678 C4.61454423,1.44555251 4.67337106,1.68001942 4.80363046,1.99600351 C6.05538125,5.0457542 10.3795731,14.1639121 10.3795731,14.1639121 L10.5379853,14.2050909 L13.3245512,8.64561859 C12.9836586,7.89250795 12.7662614,7.41017237 12.7662614,7.41017237 L10.8501877,3.64441519 C10.8506079,3.64525557 10.4804191,2.89185202 10.3539414,2.64141782 C9.51187742,0.972416755 9.52994566,0.884176518 8.67905765,0.771985359 C8.4412292,0.740470988 8.31769287,0.710217192 8.31769287,0.592143351 L8.31769287,0.0639625002 L8.38954563,0.0122789325 C8.49207239,0.0121668814 8.60296935,0.0120623004 8.72066484,0.0119646915 L10.5793421,0.011025143 C10.6528696,0.0110026706 10.7263286,0.0109813808 10.7995227,0.0109612116 L13.348647,0.0105981661 L13.4797468,0.0538779017 L13.4797468,0.579957794 C13.4797468,0.700132594 13.3940277,0.761480568 13.219228,0.761480568 L12.8599641,0.813164136 C11.9510897,0.883756326 12.0998375,1.25520571 12.7032327,2.45779409 L14.541,6.219 L16.5752983,2.16323977 C16.892571,1.47104413 16.853327,1.26311091 16.7325795,1.09873569 L16.7055577,1.06401853 C16.6248809,0.966954264 16.3542776,0.813164136 15.7655891,0.788372831 L15.5344837,0.763581527 C15.4756569,0.763581527 15.421032,0.742992138 15.3676677,0.703914318 C15.3151437,0.666517265 15.2890918,0.61819523 15.2890918,0.556427064 L15.2890918,0.0559788597 L15.3605244,0.00429529199 C15.6087997,0.00262901492 15.9103983,0.00153731616 16.2395526,0.000871597853 Z M28.9213681,5.31803836 C29.6298112,5.31803836 31.651353,5.26509422 31.651353,5.26509422 L31.6774049,5.31803836 L31.6774049,5.89538163 C31.6774049,5.97395746 31.6248809,6.02648141 31.519833,6.02648141 L30.9685417,6.07984574 C30.1546305,6.15800138 29.8659589,6.36893757 29.8659589,6.89459727 L29.8659589,15.6358433 C29.8663791,16.2136067 30.1289988,16.5552225 30.9689618,16.6337983 L31.5202532,16.6871627 C31.5988291,16.6871627 31.6778251,16.7388462 31.6778251,16.843474 L31.6778251,17.3951855 L31.6517732,17.4485499 C31.6517732,17.4485499 29.8339514,17.3999266 28.9608031,17.3955063 L28.8427923,17.3951855 C28.1078772,17.3951855 26.0602835,17.4485499 26.0602835,17.4485499 L26.0077595,17.3951855 L26.0077595,16.843474 C26.0077595,16.7388462 26.0863354,16.6871627 26.1913833,16.6871627 L26.7166228,16.6337983 C27.5826377,16.5552225 27.8452574,16.1350309 27.8452574,15.6362635 L27.8452574,6.89501746 C27.8452574,6.31851458 27.5292733,6.15884177 26.7166228,6.08236689 L26.1913833,6.02774198 C26.0867556,6.02774198 26.0077595,6.00337087 26.0077595,5.92269408 L26.0077595,5.31803836 L26.0338114,5.26509422 C26.0338114,5.26509422 28.1078772,5.31803836 28.9213681,5.31803836 Z M37.6134517,15.6362635 C37.6134517,16.2136067 37.9546473,16.5026986 38.7160345,16.6337983 L39.0047061,16.6871627 C39.083282,16.7123742 39.162278,16.7388462 39.162278,16.843474 L39.162278,17.3951855 L39.1358059,17.4485499 C39.1358059,17.4485499 37.482352,17.3951855 36.6944927,17.3951855 C35.9595776,17.3951855 33.806936,17.4485499 33.806936,17.4485499 L33.754412,17.3951855 L33.754412,16.843474 C33.754412,16.7388462 33.8329878,16.6871627 33.9384559,16.6871627 L34.4632753,16.6337983 C35.2511345,16.5552225 35.5923301,16.1350309 35.5923301,15.6362635 L35.5923301,6.89501746 C35.5923301,6.31851458 35.3032383,6.15884177 34.4632753,6.08236689 L33.9384559,6.02774198 C33.833408,6.02774198 33.754412,6.00337087 33.754412,5.92269408 L33.754412,5.31803836 L33.7808841,5.26509422 C33.7808841,5.26509422 35.9335257,5.31803836 36.7470166,5.31803836 C37.4827721,5.31803836 39.1353857,5.26509422 39.1353857,5.26509422 L39.1618578,5.31803836 L39.1618578,5.89538163 C39.1618578,5.97395746 39.1093339,6.00042953 39.004286,6.02648141 L38.7156143,6.07984574 C37.9017032,6.23657721 37.6130315,6.36893757 37.6130315,6.89459727 L37.6130315,10.8586849 C38.4790464,10.8586849 38.9778139,10.4132818 40.1329206,9.17833866 C41.1829794,8.02281174 41.9964704,7.0534297 41.9964704,6.55340168 C41.9964704,6.3424655 41.7603227,6.10757839 41.2355034,6.02774198 C41.1304555,6.00253049 41.0779315,5.97521803 41.0779315,5.8966422 L41.0779315,5.29156629 L41.1039834,5.26635479 C41.1039834,5.26635479 43.2301529,5.31929893 43.9915401,5.31929893 C44.6743515,5.31929893 45.829038,5.26635479 45.829038,5.26635479 L45.9076139,5.29156629 L45.9076139,5.8966422 C45.9076139,5.97521803 45.829038,6.02774198 45.6975181,6.02774198 C44.6739313,6.10631781 43.9650681,6.15884177 43.0200571,7.23495247 L40.7627878,9.83299718 C40.3165443,10.3065531 40.1589725,10.5939642 40.1589725,10.8053206 C40.1589725,10.9628924 40.2640204,11.0927316 40.3951202,11.2503035 L44.3592078,16.027882 C44.6743515,16.3942891 45.3042187,16.5527014 45.829038,16.6564887 L45.9601378,16.6817002 C46.0387137,16.7081723 46.1441817,16.760276 46.1441817,16.839272 L46.1441817,17.3909836 L46.0656059,17.4170355 C46.0656059,17.4170355 44.6743515,17.3909836 43.9394364,17.3909836 C43.2830971,17.3909836 42.3380862,17.4170355 42.3380862,17.4170355 L42.3120343,17.3909836 L42.3120343,17.0758399 C42.3120343,16.7333838 42.2855622,16.4468131 41.9178946,16.0266215 L39.004286,12.4033092 C38.6105664,11.8772293 38.1903748,11.7478103 37.6130315,11.7478103 L37.6130315,15.6358433 L37.6130315,15.6358433 L37.6134517,15.6362635 Z M51.7650849,15.6362635 C51.7650849,16.2136067 52.0277046,16.5552225 52.8676677,16.6337983 L53.418959,16.6871627 C53.4975349,16.6871627 53.5765309,16.7388462 53.5765309,16.843474 L53.5765309,17.3951855 L53.5500588,17.4485499 C53.5500588,17.4485499 51.5554093,17.3951855 50.7414981,17.3951855 C50.006583,17.3951855 47.9589893,17.4485499 47.9589893,17.4485499 L47.9060452,17.3951855 L47.9060452,16.843474 C47.9060452,16.7388462 47.9850412,16.6871627 48.0900891,16.6871627 L48.6153286,16.6337983 C49.4813435,16.5552225 49.7439632,16.1350309 49.7439632,15.6362635 L49.7439632,6.89501746 C49.7439632,6.31851458 49.4288195,6.15884177 48.6153286,6.08236689 L48.0900891,6.02774198 C47.9850412,6.02774198 47.9060452,6.00337087 47.9060452,5.92269408 L47.9060452,5.31803836 L47.9325172,5.26509422 C47.9325172,5.26509422 50.006583,5.31803836 50.820074,5.31803836 C51.528517,5.31803836 53.5500588,5.26509422 53.5500588,5.26509422 L53.5761107,5.31803836 L53.5761107,5.89538163 C53.5761107,5.97395746 53.5235868,6.02648141 53.4185389,6.02648141 L52.8672475,6.07984574 C52.0533363,6.15800138 51.7646647,6.36893757 51.7646647,6.89459727 L51.7646647,15.6358433 L51.7650849,15.6362635 Z M57.4368312,6.94670103 C57.4368312,6.13278989 57.0960558,6.10673801 55.8619531,6.02774198 C55.7043812,6.02774198 55.6779091,5.95000654 55.6779091,5.8966422 L55.6779091,5.29282686 L55.7304331,5.26635479 C56.1245728,5.26635479 57.6733991,5.31929893 58.4343661,5.31929893 C59.1692812,5.31929893 60.21934,5.26635479 61.190823,5.26635479 C64.9162418,5.26635479 65.598633,7.10301231 65.598633,8.46989561 C65.598633,10.0456141 64.8372458,12.5121389 61.1122472,12.5121389 C60.4559079,12.5121389 59.9306684,12.4587745 59.4571124,12.2499393 L59.4571124,15.7652623 C59.4571124,16.3426056 59.7722561,16.4749659 60.6130596,16.6052253 L61.1387193,16.6838011 C61.2437672,16.7102732 61.3227632,16.7371655 61.3227632,16.841373 L61.3227632,17.3926644 L61.2975517,17.4456085 C61.2975517,17.4456085 59.1978542,17.3926644 58.3839431,17.3926644 C57.6486078,17.3926644 55.6800101,17.4456085 55.6800101,17.4456085 L55.653538,17.3926644 L55.653538,16.841373 C55.653538,16.7363251 55.706062,16.7102732 55.8111099,16.6838011 L56.3624013,16.6052253 C57.1763124,16.5001774 57.438512,16.2640297 57.438512,15.7652623 L57.4368312,6.94670103 Z M59.458373,11.5150242 C59.9831923,11.7259604 60.6395316,11.7511719 61.1643509,11.7511719 C62.7400695,11.7511719 63.4985153,10.80406 63.4985153,8.78503931 C63.4985153,6.52777 62.4745084,6.02900256 61.0332512,6.02900256 C59.771836,6.02900256 59.4571124,6.26515024 59.4571124,6.94754141 L59.458373,11.5154444 L59.458373,11.5154444 L59.458373,11.5150242 Z M70.1198947,17.3951855 C69.3320354,17.3951855 67.52185,17.4485499 67.52185,17.4485499 L67.4949577,17.3951855 L67.4949577,16.8178423 C67.4949577,16.7661587 67.52185,16.6875829 67.6525296,16.6875829 L68.2571853,16.6342185 C69.0719368,16.5556427 69.3080845,16.0304032 69.3080845,15.5064243 L69.3080845,6.84417428 C69.3080845,6.23825798 68.9921004,6.13447065 68.2571853,6.08320728 L67.6525296,6.02858237 C67.4949577,6.00421125 67.4949577,5.95042673 67.4949577,5.92353447 L67.4949577,5.31887874 L67.52185,5.2659346 C67.52185,5.2659346 69.5681831,5.31887874 70.3560424,5.31887874 L74.2146619,5.31803836 C75.002101,5.31803836 76.8669113,5.26509422 76.8669113,5.26509422 L76.9202756,5.31803836 C76.9454871,6.44667302 77.1295311,7.47236073 77.3139952,8.46905522 L76.6589165,8.57410312 C76.3710852,7.60177974 75.8723178,6.21178591 74.1923917,6.21178591 L72.0926943,6.21178591 C71.5939268,6.21178591 71.3313071,6.39540964 71.3313071,6.84039255 L71.3313071,10.6473285 L73.2990644,10.6473285 C74.0352401,10.6473285 74.2180234,10.3321848 74.3239117,9.80778568 L74.480223,9.2560741 C74.480223,9.17749827 74.5340075,9.12371375 74.638215,9.12371375 L75.0827777,9.12413394 C75.1365623,9.12413394 75.1365623,9.15144639 75.1365623,9.20270977 C75.0827777,9.78005304 74.9785702,10.5162287 74.9785702,11.146096 C74.9785702,11.8015949 75.0836181,12.3537266 75.1365623,12.957542 L75.0827777,13.0109063 L74.6377948,13.0109063 C74.5075354,13.0109063 74.4529105,12.957542 74.4529105,12.878546 L74.3218107,12.3020431 C74.2167628,11.7763834 73.9806152,11.4872915 73.296123,11.4872915 L71.3292061,11.4877117 L71.3292061,15.5051637 C71.3292061,16.0026706 71.6157768,16.501438 72.0905933,16.501438 L74.5844305,16.501438 C75.9227408,16.501438 76.6589165,15.661475 76.9727996,14.2954321 L77.6282985,14.3740079 L77.1022186,17.391824 L77.0496947,17.444348 C77.0496947,17.444348 75.5008684,17.391824 74.7134293,17.391824 L70.1198947,17.3947653 L70.1198947,17.3947653 L70.1198947,17.3951855 Z M79.9914561,16.6871627 L80.5952714,16.6337983 C81.3835509,16.5552225 81.6461707,16.3186546 81.6461707,15.5064243 L81.6461707,6.84375409 C81.6461707,6.15926196 81.460446,6.15926196 80.5952714,6.08278708 L80.0200291,6.02816218 C79.9149812,6.02816218 79.8338843,5.97563822 79.8338843,5.8966422 L79.8338843,5.31929893 L79.8590957,5.26677498 C79.8590957,5.26677498 82.1701496,5.31929893 82.6437055,5.31929893 C83.140372,5.31929893 85.4262144,5.26677498 86.1086055,5.26677498 C90.4924646,5.26677498 92.6459466,7.99675986 92.6459466,11.4881319 C92.6459466,16.0829271 89.3898818,17.4456085 86.4775338,17.4456085 C84.3774161,17.4456085 83.4597176,17.3930846 82.6458065,17.3930846 C81.857527,17.3930846 79.8624573,17.4456085 79.8624573,17.4456085 L79.8359852,17.3930846 L79.8359852,16.8417932 C79.8338843,16.7661587 79.8876688,16.6871627 79.9914561,16.6871627 Z M85.846406,16.6871627 C88.7327021,16.6871627 90.3622052,15.6118924 90.3622052,11.9347956 C90.3622052,9.2060713 89.7575494,6.02774198 85.3476385,6.02774198 C84.3236316,6.02774198 83.6672923,6.18531384 83.6672923,6.84333389 L83.6672923,15.5060041 C83.6672923,16.2388182 83.8500756,16.6871627 85.846406,16.6871627 L85.846406,16.6871627 Z M98.8429324,15.6362635 C98.8429324,16.2136067 99.1055521,16.5552225 99.9455152,16.6337983 L100.496807,16.6871627 C100.575382,16.6871627 100.654378,16.7388462 100.654378,16.843474 L100.654378,17.3951855 L100.627906,17.4485499 C100.627906,17.4485499 98.6332568,17.3951855 97.820186,17.3951855 C97.0844305,17.3951855 95.0376772,17.4485499 95.0376772,17.4485499 L94.9843128,17.3951855 L94.9843128,16.843474 C94.9843128,16.7388462 95.0628887,16.6871627 95.1683568,16.6871627 L95.6940165,16.6337983 C96.559191,16.5552225 96.8230713,16.1350309 96.8230713,15.6362635 L96.8230713,6.89501746 C96.8230713,6.31851458 96.5070872,6.15884177 95.6940165,6.08236689 L95.1683568,6.02774198 C95.0633089,6.02774198 94.9843128,6.00337087 94.9843128,5.92269408 L94.9843128,5.31803836 L95.0107849,5.26509422 C95.0107849,5.26509422 97.0844305,5.31803836 97.8962407,5.31803836 C98.6046837,5.31803836 100.627066,5.26509422 100.627066,5.26509422 L100.652277,5.31803836 L100.652277,5.89538163 C100.652277,5.97395746 100.598913,6.02648141 100.494706,6.02648141 L99.9434142,6.07984574 C99.1295031,6.15800138 98.8412516,6.36893757 98.8412516,6.89459727 L98.8429324,15.6358433 L98.8429324,15.6358433 L98.8429324,15.6362635 Z M106.92994,16.6337983 L107.690907,16.6871627 C107.795955,16.6871627 107.901003,16.7657385 107.901003,16.8964181 L107.901003,17.3951855 L107.848479,17.4485499 C107.848479,17.4485499 104.987394,17.3951855 104.357107,17.3951855 C103.673875,17.3951855 101.993529,17.4485499 101.993529,17.4485499 L101.940165,17.3951855 L101.940165,16.8964181 C101.940165,16.7661587 102.018741,16.6871627 102.151101,16.6871627 C103.307048,16.6085868 103.961707,16.3976507 104.696622,14.7173044 L110.522998,1.06653968 C110.81041,0.384148505 111.021766,0.120688367 111.416326,0.120688367 C111.782733,0.120688367 111.915093,0.384568697 112.124349,0.908967823 L117.505322,15.1366556 C117.87383,16.161503 118.39907,16.5539619 119.448709,16.6590098 L119.7378,16.6842213 C119.8689,16.6842213 120,16.7627972 120,16.8951575 L120,17.3926644 L119.921424,17.4456085 C119.921424,17.4456085 117.900303,17.3926644 116.876716,17.3926644 C115.957757,17.3926644 113.384503,17.4456085 113.384503,17.4456085 L113.359292,17.3926644 L113.359292,16.8951575 C113.359292,16.7627972 113.411816,16.6842213 113.545017,16.6842213 L114.279932,16.6316974 C115.276206,16.5535417 115.645975,16.2367173 115.382094,15.5026425 L113.781164,11.0658394 L108.321194,11.0658394 C107.690907,11.0658394 107.533335,11.1708873 107.403496,11.5112425 L105.879881,15.3181784 C105.617261,15.9761985 105.958457,16.5548023 106.92994,16.6337983 L106.92994,16.6337983 Z M113.360973,9.96409696 L110.814611,2.95614133 L110.762088,2.95656153 L108.137151,9.62416195 C108.032103,9.88762209 108.214886,9.96535754 108.792229,9.96535754 L113.360973,9.96535754 L113.360973,9.96409696 Z M73.2283112,1.73917937 L70.4496892,3.28076937 C70.0388742,3.50908937 70.0697062,3.57950937 70.5246892,3.73657937 C70.7042652,3.79827937 70.9388372,3.74457937 71.4438142,3.59867937 L75.0907312,2.52871937 L74.9682362,2.29831937 C74.4199282,1.99124937 73.8187062,1.75500937 73.6349642,1.74541937 C73.4983042,1.73741937 73.3170622,1.73741937 73.2283162,1.74141937 L73.2283112,1.73917937 Z" id="pap-wordmark" fill="#000000"></path>
    </g>
</svg>

<svg xmlns="http://www.w3.org/2000/svg" width="120" height="18"><path fill="#000" fill-rule="evenodd" d="m18.339 0 .199.001h.375l.174.001h.315l.138.001h.323l.073.001h.098l.058.055v.5c0 .138-.077.207-.23.207-.754.035-.909.11-1.184.507-.15.217-.448.682-.756 1.204L15.28 7.42l-.073.154 3.229 6.61.195.053L23.72 2.162c.176-.487.15-.832-.078-1.035-.228-.198-.389-.316-.978-.34l-.478-.024a.28.28 0 0 1-.167-.06.174.174 0 0 1-.08-.147V.053l.073-.052h5.749l.058.052v.503c0 .136-.078.205-.232.205-.753.033-1.311.197-1.672.488-.363.294-.645.7-.849 1.225 0 0-1.444 3.306-3.002 6.855l-.268.61a1052.89 1052.89 0 0 1-3.01 6.806c-.613 1.167-1.216 1.06-1.746-.033-.664-1.367-2.041-4.38-3.054-6.61-.28.58-.587 1.212-.902 1.855l-.246.502c-.822 1.677-1.656 3.35-2.152 4.268-.714 1.242-1.303 1.08-1.771.032C7.287 12.921 3.948 6.183 2.376 2.407c-.291-.695-.51-1.141-.717-1.318C1.45.914 1.019.809.36.774.121.747 0 .689 0 .594V.068L.058.016h.373l.16-.001h.784L1.6.013h2.956l.225.001h.95l.144.001h.433l.058.052v.5c0 .139-.088.206-.26.206L5.454.8c-.56.023-.84.19-.84.5 0 .145.06.379.19.695 1.251 3.05 5.576 12.168 5.576 12.168l.158.041 2.787-5.56-.559-1.235-1.916-3.766c0 .001-.37-.752-.496-1.003C9.512.972 9.53.884 8.679.772 8.441.74 8.318.71 8.318.592V.064L8.39.012h.33l1.86-.001h2.769l.13.043V.58c0 .12-.085.181-.26.181l-.359.052c-.909.07-.76.442-.157 1.645l1.838 3.761 2.034-4.056c.318-.692.278-.9.158-1.064l-.027-.035c-.081-.097-.352-.25-.94-.276l-.232-.024a.278.278 0 0 1-.166-.06.172.172 0 0 1-.079-.148v-.5l.072-.052.879-.003Zm10.582 5.318c.709 0 2.73-.053 2.73-.053l.026.053v.577c0 .079-.052.131-.157.131l-.551.054c-.814.078-1.103.289-1.103.815v8.74c0 .579.263.92 1.103.999l.551.053c.079 0 .158.052.158.156v.552l-.026.054s-1.818-.05-2.691-.053h-.118c-.735 0-2.783.053-2.783.053l-.052-.054v-.552c0-.104.078-.156.183-.156l.526-.053c.866-.079 1.128-.499 1.128-.998V6.895c0-.576-.316-.736-1.128-.813l-.526-.054c-.104 0-.183-.025-.183-.105v-.605l.026-.053s2.074.053 2.887.053Zm8.692 10.318c0 .578.342.867 1.103.998l.289.053c.078.025.157.052.157.156v.552l-.026.054s-1.654-.054-2.442-.054c-.734 0-2.887.054-2.887.054l-.053-.054v-.552c0-.104.079-.156.184-.156l.525-.053c.788-.079 1.13-.499 1.13-.998V6.895c0-.576-.29-.736-1.13-.813l-.525-.054c-.105 0-.184-.025-.184-.105v-.605l.027-.053s2.153.053 2.966.053c.736 0 2.388-.053 2.388-.053l.027.053v.577c0 .079-.053.105-.158.131l-.288.054c-.814.157-1.103.289-1.103.815v3.964c.866 0 1.365-.446 2.52-1.68 1.05-1.156 1.863-2.126 1.863-2.626 0-.21-.236-.445-.76-.525-.106-.025-.158-.053-.158-.131v-.605l.026-.026s2.126.053 2.888.053c.682 0 1.837-.053 1.837-.053l.079.026v.605c0 .078-.079.13-.21.13-1.024.08-1.733.132-2.678 1.208l-2.257 2.598c-.446.474-.604.761-.604.972 0 .158.105.288.236.445l3.964 4.778c.315.366.945.525 1.47.628l.131.026c.079.026.184.078.184.157v.552l-.078.026s-1.392-.026-2.127-.026c-.656 0-1.6.026-1.6.026l-.027-.026v-.315c0-.343-.026-.63-.394-1.05l-2.914-3.623c-.393-.526-.814-.655-1.391-.655v3.888Zm14.152 0c0 .578.263.92 1.103.998l.551.053c.079 0 .158.052.158.156v.552l-.027.054s-1.995-.054-2.809-.054c-.734 0-2.782.054-2.782.054l-.053-.054v-.552c0-.104.079-.156.184-.156l.525-.053c.866-.079 1.129-.499 1.129-.998V6.895c0-.576-.315-.736-1.129-.813l-.525-.054c-.105 0-.184-.025-.184-.105v-.605l.027-.053s2.074.053 2.887.053c.709 0 2.73-.053 2.73-.053l.026.053v.577c0 .079-.052.131-.157.131l-.552.054c-.814.078-1.102.289-1.102.815v8.741Zm5.672-8.69c0-.813-.34-.84-1.575-.918-.158 0-.184-.078-.184-.131v-.604l.052-.027c.395 0 1.943.053 2.704.053.735 0 1.785-.053 2.757-.053 3.725 0 4.408 1.837 4.408 3.204 0 1.576-.762 4.042-4.487 4.042-.656 0-1.181-.053-1.655-.262v3.515c0 .578.315.71 1.156.84l.526.079c.105.026.184.053.184.157v.552l-.025.053s-2.1-.053-2.914-.053c-.735 0-2.704.053-2.704.053l-.026-.053v-.552c0-.105.052-.13.157-.157l.551-.079c.814-.105 1.077-.341 1.077-.84l-.002-8.818Zm2.021 4.569c.525.211 1.182.236 1.706.236 1.576 0 2.335-.947 2.335-2.966 0-2.257-1.024-2.756-2.466-2.756-1.261 0-1.576.236-1.576.919l.001 4.567Zm10.662 5.88c-.788 0-2.598.054-2.598.054l-.027-.054v-.577c0-.052.027-.13.158-.13l.604-.054c.815-.078 1.051-.604 1.051-1.128V6.844c0-.606-.316-.71-1.05-.76l-.605-.055c-.158-.025-.158-.079-.158-.105v-.605l.027-.053s2.046.053 2.834.053l3.859-.001c.787 0 2.652-.053 2.652-.053l.053.053c.025 1.129.21 2.154.394 3.151l-.655.105c-.288-.972-.787-2.362-2.467-2.362h-2.1c-.498 0-.76.183-.76.628v3.807h1.967c.736 0 .919-.315 1.025-.84l.156-.55c0-.08.054-.133.158-.133h.445c.054 0 .054.027.054.079-.054.577-.158 1.313-.158 1.943 0 .656.105 1.208.158 1.812l-.054.053h-.445c-.13 0-.185-.053-.185-.132l-.131-.577c-.105-.526-.341-.815-1.026-.815H71.33v4.018c0 .498.287.996.762.996h2.493c1.339 0 2.075-.84 2.389-2.206l.655.079-.526 3.018-.052.052s-1.55-.052-2.337-.052l-4.593.003Zm9.871-.708.604-.053c.789-.079 1.051-.315 1.051-1.128V6.844c0-.685-.186-.685-1.05-.761l-.576-.055c-.105 0-.186-.052-.186-.131v-.578l.025-.052s2.311.052 2.785.052c.496 0 2.782-.052 3.465-.052 4.383 0 6.537 2.73 6.537 6.221 0 4.595-3.256 5.958-6.168 5.958-2.1 0-3.018-.053-3.832-.053-.788 0-2.784.053-2.784.053l-.026-.053v-.551a.149.149 0 0 1 .155-.155Zm5.855 0c2.887 0 4.516-1.075 4.516-4.752 0-2.729-.604-5.907-5.014-5.907-1.024 0-1.68.157-1.68.815v8.663c0 .733.182 1.181 2.178 1.181Zm12.997-1.05c0 .577.263.918 1.103.997l.55.053c.08 0 .158.052.158.156v.552l-.026.054s-1.995-.054-2.808-.054c-.736 0-2.782.054-2.782.054l-.054-.054v-.552c0-.104.079-.156.184-.156l.526-.053c.865-.079 1.13-.499 1.13-.998V6.895c0-.576-.317-.736-1.13-.813l-.526-.054c-.105 0-.184-.025-.184-.105v-.605l.027-.053s2.073.053 2.885.053c.709 0 2.731-.053 2.731-.053l.025.053v.577c0 .079-.053.131-.157.131l-.552.054c-.813.078-1.102.289-1.102.815l.002 8.74v.001Zm8.087.997.76.053c.106 0 .211.079.211.21v.498l-.053.054s-2.86-.054-3.49-.054c-.684 0-2.364.054-2.364.054l-.054-.054v-.499c0-.13.079-.209.211-.209 1.156-.078 1.81-.29 2.546-1.97l5.826-13.65c.287-.683.499-.946.893-.946.367 0 .5.264.708.788l5.381 14.228c.369 1.025.894 1.417 1.944 1.522l.289.025c.13 0 .262.079.262.211v.498l-.079.053s-2.02-.053-3.044-.053c-.92 0-3.492.053-3.492.053l-.026-.053v-.498c0-.132.053-.21.186-.21l.735-.053c.996-.078 1.366-.395 1.102-1.13l-1.6-4.436h-5.46c-.631 0-.789.105-.919.445l-1.523 3.807c-.263.658.078 1.237 1.05 1.316Zm6.431-6.67-2.546-7.008h-.053l-2.625 6.668c-.105.264.078.341.655.341h4.569ZM73.228 1.74 70.45 3.281c-.411.228-.38.299.075.456.18.061.414.008.919-.138l3.647-1.07-.123-.23c-.548-.308-1.15-.544-1.333-.554a4.747 4.747 0 0 0-.407-.004V1.74Z"/></svg>
